X:15
T:Couir
C:Thaver Ma Chare RoEe, hus n'in pr?chard hu partier
M:2/4
L:1/8
K:Cm
AB AG|A2 A2|Az


*****************************


6700 4 1.8658986 

<starovRB>
V:1
S:4
|:A>G AG G|A>G FG|F>EF G2|B2B2| GBc/d/|ed/c/B|GG| A>G|BcA|G3z|]
V:2
A4-|A4|B4c4|A4:|2 


*****************************


6800 4 0.9059843 

<start@uthor Bliau pest e un de aourre de-tro
D:Noldenak Stnar-G
gad gece | d2c2cc | cdefed | f2edcB |1 c


*****************************


6900 4 0.78045815 

<start>
